X:1
T:[ID 5-39]
T:[ID 5-39]
T:Bezeichnung standardisiert: Menuett Menuet
T:Urheber unbekannt Datum in der hier transkribierten schriftlichen Quelle: 1773
C:Urheber unbekannt
C:Datum in der hier transkribierten schriftlichen Quelle: 1773
L:1/8
M:3/4
K:D
V:1 treble 
V:1
 defgab | a4 fg | a2 f2 d2 | A4 A2 | ABcdef | e4 f^g | afecdB | A6 :: A2 B2 c2 | B2 c2 d2 | %10
 A2 g2 f2 | e4 f2 | g2 bg e2 | f2 af d2 | egfgac | d6 :| %16

